icons/code-16.svg

<svg width="16" height="16" viewBox="0 0 16 16" xmlns="http://www.w3.org/2000/svg">
  <path fill-rule="evenodd" clip-rule="evenodd" d="M4.71967 3.21967C5.01256 2.92678 5.48744 2.92678 5.78033 3.21967C6.07322 3.51256 6.07322 3.98744 5.78033 4.28033L2.06066 8L5.78033 11.7197C6.07322 12.0126 6.07322 12.4874 5.78033 12.7803C5.48744 13.0732 5.01256 13.0732 4.71967 12.7803L0.46967 8.53033C0.176777 8.23744 0.176777 7.76256 0.46967 7.46967L4.71967 3.21967ZM11.2803 3.21967C10.9874 2.92678 10.5126 2.92678 10.2197 3.21967C9.92678 3.51256 9.92678 3.98744 10.2197 4.28033L13.9393 8L10.2197 11.7197C9.92678 12.0126 9.92678 12.4874 10.2197 12.7803C10.5126 13.0732 10.9874 13.0732 11.2803 12.7803L15.5303 8.53033C15.8232 8.23744 15.8232 7.76256 15.5303 7.46967L11.2803 3.21967Z"/>
</svg>

<svg xmlns="http://www.w3.org/2000/svg" width="16" height="16" viewBox="0 0 16 16"><path fill-rule="evenodd" d="M4.72 3.22a.75.75 0 011.06 1.06L2.06 8l3.72 3.72a.75.75 0 11-1.06 1.06L.47 8.53a.75.75 0 010-1.06l4.25-4.25zm6.56 0a.75.75 0 10-1.06 1.06L13.94 8l-3.72 3.72a.75.75 0 101.06 1.06l4.25-4.25a.75.75 0 000-1.06l-4.25-4.25z"/></svg>
